images/3234900.svg

<?xml version="1.0" encoding="UTF-8"?>
<svg xmlns="http://www.w3.org/2000/svg" xmlns:xlink="http://www.w3.org/1999/xlink" width="300pt" height="300pt" viewBox="0 0 300 300" version="1.1">
<defs>
<g>
<symbol overflow="visible" id="glyph0-0">
<path style="stroke:none;" d="M 0.453125 1.59375 L 0.453125 -6.34375 L 4.953125 -6.34375 L 4.953125 1.59375 Z M 0.953125 1.09375 L 4.453125 1.09375 L 4.453125 -5.84375 L 0.953125 -5.84375 Z M 0.953125 1.09375 "/>
</symbol>
<symbol overflow="visible" id="glyph0-1">
<path style="stroke:none;" d="M 0.890625 -6.5625 L 2.078125 -6.5625 L 4.984375 -1.078125 L 4.984375 -6.5625 L 5.84375 -6.5625 L 5.84375 0 L 4.65625 0 L 1.75 -5.484375 L 1.75 0 L 0.890625 0 Z M 0.890625 -6.5625 "/>
</symbol>
<symbol overflow="visible" id="glyph0-2">
<path style="stroke:none;" d="M 3.546875 -5.953125 C 2.898438 -5.953125 2.382812 -5.710938 2 -5.234375 C 1.625 -4.753906 1.4375 -4.101562 1.4375 -3.28125 C 1.4375 -2.445312 1.625 -1.789062 2 -1.3125 C 2.382812 -0.832031 2.898438 -0.59375 3.546875 -0.59375 C 4.191406 -0.59375 4.703125 -0.832031 5.078125 -1.3125 C 5.453125 -1.789062 5.640625 -2.445312 5.640625 -3.28125 C 5.640625 -4.101562 5.453125 -4.753906 5.078125 -5.234375 C 4.703125 -5.710938 4.191406 -5.953125 3.546875 -5.953125 Z M 3.546875 -6.6875 C 4.460938 -6.6875 5.195312 -6.375 5.75 -5.75 C 6.300781 -5.132812 6.578125 -4.3125 6.578125 -3.28125 C 6.578125 -2.238281 6.300781 -1.410156 5.75 -0.796875 C 5.195312 -0.179688 4.460938 0.125 3.546875 0.125 C 2.617188 0.125 1.878906 -0.179688 1.328125 -0.796875 C 0.773438 -1.410156 0.5 -2.238281 0.5 -3.28125 C 0.5 -4.3125 0.773438 -5.132812 1.328125 -5.75 C 1.878906 -6.375 2.617188 -6.6875 3.546875 -6.6875 Z M 3.546875 -6.6875 "/>
</symbol>
</g>
</defs>
<g id="surface34441">
<rect x="0" y="0" width="300" height="300" style="fill:rgb(100%,100%,100%);fill-opacity:1;stroke:none;"/>
<path style="fill:none;stroke-width:1.2;stroke-linecap:butt;stroke-linejoin:miter;stroke:rgb(0%,0%,0%);stroke-opacity:1;stroke-miterlimit:10;" d="M 207.957031 197.503906 L 185.609375 194.011719 "/>
<path style="fill:none;stroke-width:1.2;stroke-linecap:butt;stroke-linejoin:miter;stroke:rgb(0%,0%,0%);stroke-opacity:1;stroke-miterlimit:10;" d="M 222.15625 179.898438 L 207.957031 197.503906 "/>
<path style="fill:none;stroke-width:1.2;stroke-linecap:butt;stroke-linejoin:miter;stroke:rgb(0%,0%,0%);stroke-opacity:1;stroke-miterlimit:10;" d="M 185.609375 194.011719 L 177.464844 172.910156 "/>
<path style="fill:none;stroke-width:1.2;stroke-linecap:butt;stroke-linejoin:miter;stroke:rgb(0%,0%,0%);stroke-opacity:1;stroke-miterlimit:10;" d="M 177.464844 172.910156 L 169.320312 151.8125 "/>
<path style="fill:none;stroke-width:1.2;stroke-linecap:butt;stroke-linejoin:miter;stroke:rgb(0%,0%,0%);stroke-opacity:1;stroke-miterlimit:10;" d="M 177.464844 172.910156 L 191.664062 155.308594 "/>
<path style="fill:none;stroke-width:1.2;stroke-linecap:butt;stroke-linejoin:miter;stroke:rgb(0%,0%,0%);stroke-opacity:1;stroke-miterlimit:10;" d="M 163.265625 190.515625 L 177.464844 172.910156 "/>
<path style="fill:none;stroke-width:1.2;stroke-linecap:butt;stroke-linejoin:miter;stroke:rgb(0%,0%,0%);stroke-opacity:1;stroke-miterlimit:10;" d="M 169.320312 151.8125 L 146.972656 148.320312 "/>
<path style="fill:none;stroke-width:1.2;stroke-linecap:butt;stroke-linejoin:miter;stroke:rgb(0%,0%,0%);stroke-opacity:1;stroke-miterlimit:10;" d="M 146.972656 148.320312 L 139.875 157.121094 "/>
<path style="fill:none;stroke-width:1.2;stroke-linecap:butt;stroke-linejoin:miter;stroke:rgb(0%,0%,100%);stroke-opacity:1;stroke-miterlimit:10;" d="M 139.875 157.121094 L 132.773438 165.921875 "/>
<path style="fill:none;stroke-width:1.2;stroke-linecap:butt;stroke-linejoin:miter;stroke:rgb(0%,0%,100%);stroke-opacity:1;stroke-miterlimit:10;" d="M 132.773438 165.921875 L 136.847656 176.472656 "/>
<path style="fill:none;stroke-width:1.2;stroke-linecap:butt;stroke-linejoin:miter;stroke:rgb(0%,0%,0%);stroke-opacity:1;stroke-miterlimit:10;" d="M 136.847656 176.472656 L 140.921875 187.019531 "/>
<path style="fill:none;stroke-width:1.2;stroke-linecap:butt;stroke-linejoin:miter;stroke:rgb(0%,0%,100%);stroke-opacity:1;stroke-miterlimit:10;" d="M 132.773438 165.921875 L 121.601562 164.175781 "/>
<path style="fill:none;stroke-width:1.2;stroke-linecap:butt;stroke-linejoin:miter;stroke:rgb(0%,0%,0%);stroke-opacity:1;stroke-miterlimit:10;" d="M 121.601562 164.175781 L 110.429688 162.429688 "/>
<path style=" stroke:none;fill-rule:nonzero;fill:rgb(100%,100%,100%);fill-opacity:1;" d="M 129.773438 160.421875 L 136.773438 160.421875 L 136.773438 171.421875 L 129.773438 171.421875 Z M 129.773438 160.421875 "/>
<g style="fill:rgb(0%,0%,100%);fill-opacity:1;">
  <use xlink:href="#glyph0-1" x="129.773438" y="169.084961"/>
</g>
<path style="fill:none;stroke-width:1.2;stroke-linecap:butt;stroke-linejoin:miter;stroke:rgb(0%,0%,0%);stroke-opacity:1;stroke-miterlimit:10;" d="M 140.921875 187.019531 L 163.265625 190.515625 "/>
<path style="fill:none;stroke-width:1.2;stroke-linecap:butt;stroke-linejoin:miter;stroke:rgb(0%,0%,0%);stroke-opacity:1;stroke-miterlimit:10;" d="M 108.359375 160.757812 L 101.261719 169.558594 "/>
<path style="fill:none;stroke-width:1.2;stroke-linecap:butt;stroke-linejoin:miter;stroke:rgb(100%,0%,0%);stroke-opacity:1;stroke-miterlimit:10;" d="M 101.261719 169.558594 L 94.160156 178.363281 "/>
<path style="fill:none;stroke-width:1.2;stroke-linecap:butt;stroke-linejoin:miter;stroke:rgb(0%,0%,0%);stroke-opacity:1;stroke-miterlimit:10;" d="M 112.5 164.097656 L 105.402344 172.902344 "/>
<path style="fill:none;stroke-width:1.2;stroke-linecap:butt;stroke-linejoin:miter;stroke:rgb(100%,0%,0%);stroke-opacity:1;stroke-miterlimit:10;" d="M 105.402344 172.902344 L 98.304688 181.703125 "/>
<path style="fill:none;stroke-width:1.2;stroke-linecap:butt;stroke-linejoin:miter;stroke:rgb(0%,0%,0%);stroke-opacity:1;stroke-miterlimit:10;" d="M 110.429688 162.429688 L 106.355469 151.878906 "/>
<path style="fill:none;stroke-width:1.2;stroke-linecap:butt;stroke-linejoin:miter;stroke:rgb(100%,0%,0%);stroke-opacity:1;stroke-miterlimit:10;" d="M 106.355469 151.878906 L 102.285156 141.332031 "/>
<path style=" stroke:none;fill-rule:nonzero;fill:rgb(100%,100%,100%);fill-opacity:1;" d="M 88.230469 174.53125 L 96.230469 174.53125 L 96.230469 185.53125 L 88.230469 185.53125 Z M 88.230469 174.53125 "/>
<g style="fill:rgb(100%,0%,0%);fill-opacity:1;">
  <use xlink:href="#glyph0-2" x="88.230469" y="183.194336"/>
</g>
<path style="fill:none;stroke-width:1.2;stroke-linecap:butt;stroke-linejoin:miter;stroke:rgb(100%,0%,0%);stroke-opacity:1;stroke-miterlimit:10;" d="M 102.285156 141.332031 L 91.113281 139.582031 "/>
<path style="fill:none;stroke-width:1.2;stroke-linecap:butt;stroke-linejoin:miter;stroke:rgb(0%,0%,0%);stroke-opacity:1;stroke-miterlimit:10;" d="M 91.113281 139.582031 L 79.941406 137.835938 "/>
<path style=" stroke:none;fill-rule:nonzero;fill:rgb(100%,100%,100%);fill-opacity:1;" d="M 98.285156 135.832031 L 106.285156 135.832031 L 106.285156 146.832031 L 98.285156 146.832031 Z M 98.285156 135.832031 "/>
<g style="fill:rgb(100%,0%,0%);fill-opacity:1;">
  <use xlink:href="#glyph0-2" x="98.285156" y="144.495117"/>
</g>
<path style="fill:none;stroke-width:1.2;stroke-linecap:butt;stroke-linejoin:miter;stroke:rgb(0%,0%,0%);stroke-opacity:1;stroke-miterlimit:10;" d="M 79.941406 137.835938 L 71.792969 116.738281 "/>
<path style="fill:none;stroke-width:1.2;stroke-linecap:butt;stroke-linejoin:miter;stroke:rgb(0%,0%,0%);stroke-opacity:1;stroke-miterlimit:10;" d="M 74.160156 137.644531 L 67.644531 120.765625 "/>
<path style="fill:none;stroke-width:1.2;stroke-linecap:butt;stroke-linejoin:miter;stroke:rgb(0%,0%,0%);stroke-opacity:1;stroke-miterlimit:10;" d="M 65.742188 155.441406 L 79.941406 137.835938 "/>
<path style="fill:none;stroke-width:1.2;stroke-linecap:butt;stroke-linejoin:miter;stroke:rgb(0%,0%,0%);stroke-opacity:1;stroke-miterlimit:10;" d="M 71.792969 116.738281 L 49.449219 113.242188 "/>
<path style="fill:none;stroke-width:1.2;stroke-linecap:butt;stroke-linejoin:miter;stroke:rgb(0%,0%,0%);stroke-opacity:1;stroke-miterlimit:10;" d="M 49.449219 113.242188 L 35.25 130.847656 "/>
<path style="fill:none;stroke-width:1.2;stroke-linecap:butt;stroke-linejoin:miter;stroke:rgb(0%,0%,0%);stroke-opacity:1;stroke-miterlimit:10;" d="M 52.171875 118.34375 L 40.8125 132.429688 "/>
<path style="fill:none;stroke-width:1.2;stroke-linecap:butt;stroke-linejoin:miter;stroke:rgb(0%,0%,0%);stroke-opacity:1;stroke-miterlimit:10;" d="M 35.25 130.847656 L 43.394531 151.945312 "/>
<path style="fill:none;stroke-width:1.2;stroke-linecap:butt;stroke-linejoin:miter;stroke:rgb(0%,0%,0%);stroke-opacity:1;stroke-miterlimit:10;" d="M 43.394531 151.945312 L 65.742188 155.441406 "/>
<path style="fill:none;stroke-width:1.2;stroke-linecap:butt;stroke-linejoin:miter;stroke:rgb(0%,0%,0%);stroke-opacity:1;stroke-miterlimit:10;" d="M 46.453125 147.039062 L 64.328125 149.832031 "/>
<path style="fill:none;stroke-width:1.2;stroke-linecap:butt;stroke-linejoin:miter;stroke:rgb(0%,0%,0%);stroke-opacity:1;stroke-miterlimit:10;" d="M 191.664062 155.308594 L 202.835938 157.054688 "/>
<path style="fill:none;stroke-width:1.2;stroke-linecap:butt;stroke-linejoin:miter;stroke:rgb(0%,0%,100%);stroke-opacity:1;stroke-miterlimit:10;" d="M 202.835938 157.054688 L 214.007812 158.800781 "/>
<path style="fill:none;stroke-width:1.2;stroke-linecap:butt;stroke-linejoin:miter;stroke:rgb(0%,0%,100%);stroke-opacity:1;stroke-miterlimit:10;" d="M 214.007812 158.800781 L 218.082031 169.351562 "/>
<path style="fill:none;stroke-width:1.2;stroke-linecap:butt;stroke-linejoin:miter;stroke:rgb(0%,0%,0%);stroke-opacity:1;stroke-miterlimit:10;" d="M 218.082031 169.351562 L 222.15625 179.898438 "/>
<path style="fill:none;stroke-width:1.2;stroke-linecap:butt;stroke-linejoin:miter;stroke:rgb(0%,0%,100%);stroke-opacity:1;stroke-miterlimit:10;" d="M 214.007812 158.800781 L 221.105469 150 "/>
<path style="fill:none;stroke-width:1.2;stroke-linecap:butt;stroke-linejoin:miter;stroke:rgb(0%,0%,0%);stroke-opacity:1;stroke-miterlimit:10;" d="M 221.105469 150 L 228.207031 141.199219 "/>
<path style=" stroke:none;fill-rule:nonzero;fill:rgb(100%,100%,100%);fill-opacity:1;" d="M 211.007812 153.300781 L 218.007812 153.300781 L 218.007812 164.300781 L 211.007812 164.300781 Z M 211.007812 153.300781 "/>
<g style="fill:rgb(0%,0%,100%);fill-opacity:1;">
  <use xlink:href="#glyph0-1" x="211.007812" y="161.963867"/>
</g>
<path style="fill:none;stroke-width:1.2;stroke-linecap:butt;stroke-linejoin:miter;stroke:rgb(0%,0%,0%);stroke-opacity:1;stroke-miterlimit:10;" d="M 228.207031 141.199219 L 250.550781 144.691406 "/>
<path style="fill:none;stroke-width:1.2;stroke-linecap:butt;stroke-linejoin:miter;stroke:rgb(0%,0%,0%);stroke-opacity:1;stroke-miterlimit:10;" d="M 231.261719 136.289062 L 249.140625 139.085938 "/>
<path style="fill:none;stroke-width:1.2;stroke-linecap:butt;stroke-linejoin:miter;stroke:rgb(0%,0%,0%);stroke-opacity:1;stroke-miterlimit:10;" d="M 220.058594 120.101562 L 228.207031 141.199219 "/>
<path style="fill:none;stroke-width:1.2;stroke-linecap:butt;stroke-linejoin:miter;stroke:rgb(0%,0%,0%);stroke-opacity:1;stroke-miterlimit:10;" d="M 250.550781 144.691406 L 264.75 127.089844 "/>
<path style="fill:none;stroke-width:1.2;stroke-linecap:butt;stroke-linejoin:miter;stroke:rgb(0%,0%,0%);stroke-opacity:1;stroke-miterlimit:10;" d="M 264.75 127.089844 L 260.675781 116.539062 "/>
<path style="fill:none;stroke-width:1.2;stroke-linecap:butt;stroke-linejoin:miter;stroke:rgb(0%,0%,100%);stroke-opacity:1;stroke-miterlimit:10;" d="M 260.675781 116.539062 L 256.605469 105.988281 "/>
<path style="fill:none;stroke-width:1.2;stroke-linecap:butt;stroke-linejoin:miter;stroke:rgb(0%,0%,0%);stroke-opacity:1;stroke-miterlimit:10;" d="M 258.972656 126.894531 L 255.710938 118.457031 "/>
<path style="fill:none;stroke-width:1.2;stroke-linecap:butt;stroke-linejoin:miter;stroke:rgb(0%,0%,100%);stroke-opacity:1;stroke-miterlimit:10;" d="M 255.710938 118.457031 L 252.453125 110.015625 "/>
<path style="fill:none;stroke-width:1.2;stroke-linecap:butt;stroke-linejoin:miter;stroke:rgb(0%,0%,100%);stroke-opacity:1;stroke-miterlimit:10;" d="M 256.605469 105.988281 L 245.429688 104.242188 "/>
<path style="fill:none;stroke-width:1.2;stroke-linecap:butt;stroke-linejoin:miter;stroke:rgb(0%,0%,0%);stroke-opacity:1;stroke-miterlimit:10;" d="M 245.429688 104.242188 L 234.257812 102.496094 "/>
<path style=" stroke:none;fill-rule:nonzero;fill:rgb(100%,100%,100%);fill-opacity:1;" d="M 253.605469 100.488281 L 260.605469 100.488281 L 260.605469 111.488281 L 253.605469 111.488281 Z M 253.605469 100.488281 "/>
<g style="fill:rgb(0%,0%,100%);fill-opacity:1;">
  <use xlink:href="#glyph0-1" x="253.605469" y="109.151367"/>
</g>
<path style="fill:none;stroke-width:1.2;stroke-linecap:butt;stroke-linejoin:miter;stroke:rgb(0%,0%,0%);stroke-opacity:1;stroke-miterlimit:10;" d="M 234.257812 102.496094 L 220.058594 120.101562 "/>
<path style="fill:none;stroke-width:1.2;stroke-linecap:butt;stroke-linejoin:miter;stroke:rgb(0%,0%,0%);stroke-opacity:1;stroke-miterlimit:10;" d="M 236.980469 107.597656 L 225.621094 121.679688 "/>
</g>
</svg>

<svg xmlns="http://www.w3.org/2000/svg" xmlns:xlink="http://www.w3.org/1999/xlink" width="300pt" height="300pt" viewBox="0 0 300 300"><defs><symbol overflow="visible"><path d="M.453 1.594v-7.938h4.5v7.938zm.5-.5h3.5v-6.938h-3.5zm0 0"/></symbol><symbol overflow="visible" id="a"><path d="M.89-6.563H2.08l2.906 5.485v-5.484h.86V0H4.656L1.75-5.484V0H.89zm0 0"/></symbol><symbol overflow="visible" id="b"><path d="M3.547-5.953c-.65 0-1.164.242-1.547.72-.375.48-.563 1.13-.563 1.952 0 .835.188 1.49.563 1.967.383.48.898.72 1.547.72.644 0 1.156-.24 1.53-.72.376-.476.564-1.132.564-1.968 0-.822-.187-1.474-.562-1.954-.375-.477-.887-.72-1.53-.72zm0-.734c.914 0 1.648.312 2.203.937.55.617.828 1.438.828 2.47 0 1.042-.277 1.87-.828 2.483-.555.617-1.29.922-2.203.922-.93 0-1.668-.305-2.22-.922C.774-1.41.5-2.237.5-3.28c0-1.033.273-1.853.828-2.47.55-.625 1.29-.938 2.22-.938zm0 0"/></symbol></defs><g><path fill="#fff" d="M0 0h300v300H0z"/><path d="M207.957 197.504l-22.348-3.492M222.156 179.898l-14.2 17.606M185.61 194.012l-8.145-21.102M177.465 172.91l-8.145-21.097M177.465 172.91l14.2-17.6M163.266 190.516l14.2-17.606M169.32 151.813l-22.347-3.493M146.973 148.32l-7.098 8.8" stroke-width="1.2" stroke="#000" stroke-miterlimit="10" fill="none"/><path d="M139.875 157.12l-7.102 8.802M132.773 165.922l4.075 10.55" stroke-width="1.2" stroke="#00f" stroke-miterlimit="10" fill="none"/><path d="M136.848 176.473l4.074 10.547" stroke-width="1.2" stroke="#000" stroke-miterlimit="10" fill="none"/><path d="M132.773 165.922l-11.17-1.746" stroke-width="1.2" stroke="#00f" stroke-miterlimit="10" fill="none"/><path d="M121.602 164.176l-11.172-1.746" stroke-width="1.2" stroke="#000" stroke-miterlimit="10" fill="none"/><path d="M129.773 160.422h7v11h-7zm0 0" fill="#fff"/><use xlink:href="#a" x="129.773" y="169.085" fill="#00f"/><path d="M140.922 187.02l22.344 3.496M108.36 160.758l-7.098 8.8" stroke-width="1.2" stroke="#000" stroke-miterlimit="10" fill="none"/><path d="M101.262 169.56l-7.102 8.803" stroke-width="1.2" stroke="#f00" stroke-miterlimit="10" fill="none"/><path d="M112.5 164.098l-7.098 8.804" stroke-width="1.2" stroke="#000" stroke-miterlimit="10" fill="none"/><path d="M105.402 172.902l-7.097 8.8" stroke-width="1.2" stroke="#f00" stroke-miterlimit="10" fill="none"/><path d="M110.43 162.43l-4.075-10.55" stroke-width="1.2" stroke="#000" stroke-miterlimit="10" fill="none"/><path d="M106.355 151.88l-4.07-10.548" stroke-width="1.2" stroke="#f00" stroke-miterlimit="10" fill="none"/><path d="M88.23 174.53h8v11h-8zm0 0" fill="#fff"/><use xlink:href="#b" x="88.23" y="183.194" fill="#f00"/><path d="M102.285 141.332l-11.172-1.75" stroke-width="1.2" stroke="#f00" stroke-miterlimit="10" fill="none"/><path d="M91.113 139.582l-11.172-1.746" stroke-width="1.2" stroke="#000" stroke-miterlimit="10" fill="none"/><path d="M98.285 135.832h8v11h-8zm0 0" fill="#fff"/><use xlink:href="#b" x="98.285" y="144.495" fill="#f00"/><path d="M79.94 137.836l-8.147-21.098M74.16 137.645l-6.515-16.88M65.742 155.44l14.2-17.604M71.793 116.738l-22.344-3.496M49.45 113.242l-14.2 17.606M52.172 118.344l-11.36 14.086M35.25 130.848l8.145 21.097M43.395 151.945l22.347 3.496M46.453 147.04l17.875 2.792M191.664 155.31l11.172 1.745" stroke-width="1.2" stroke="#000" stroke-miterlimit="10" fill="none"/><path d="M202.836 157.055l11.172 1.746M214.008 158.8l4.074 10.552" stroke-width="1.2" stroke="#00f" stroke-miterlimit="10" fill="none"/><path d="M218.082 169.352l4.074 10.546" stroke-width="1.2" stroke="#000" stroke-miterlimit="10" fill="none"/><path d="M214.008 158.8l7.097-8.8" stroke-width="1.2" stroke="#00f" stroke-miterlimit="10" fill="none"/><path d="M221.105 150l7.102-8.8" stroke-width="1.2" stroke="#000" stroke-miterlimit="10" fill="none"/><path d="M211.008 153.3h7v11h-7zm0 0" fill="#fff"/><use xlink:href="#a" x="211.008" y="161.964" fill="#00f"/><path d="M228.207 141.2l22.344 3.49M231.262 136.29l17.88 2.796M220.06 120.102l8.147 21.097M250.55 144.69l14.2-17.6M264.75 127.09l-4.074-10.55" stroke-width="1.2" stroke="#000" stroke-miterlimit="10" fill="none"/><path d="M260.676 116.54l-4.07-10.552" stroke-width="1.2" stroke="#00f" stroke-miterlimit="10" fill="none"/><path d="M258.973 126.895l-3.262-8.438" stroke-width="1.2" stroke="#000" stroke-miterlimit="10" fill="none"/><path d="M255.71 118.457l-3.257-8.44M256.605 105.988l-11.175-1.746" stroke-width="1.2" stroke="#00f" stroke-miterlimit="10" fill="none"/><path d="M245.43 104.242l-11.172-1.746" stroke-width="1.2" stroke="#000" stroke-miterlimit="10" fill="none"/><path d="M253.605 100.488h7v11h-7zm0 0" fill="#fff"/><use xlink:href="#a" x="253.605" y="109.151" fill="#00f"/><path d="M234.258 102.496l-14.2 17.606M236.98 107.598l-11.36 14.082" stroke-width="1.2" stroke="#000" stroke-miterlimit="10" fill="none"/></g></svg>
